assets/icons/mail.svg

<svg xmlns="http://www.w3.org/2000/svg" xmlns:xlink="http://www.w3.org/1999/xlink" width="60" height="60" viewBox="0 0 60 60">
    <defs>
        <path id="j3av9yomva" d="M0 16.667c0 9.204 7.462 16.666 16.667 16.666 9.204 0 16.666-7.462 16.666-16.666C33.333 7.462 25.871 0 16.667 0 7.462 0 0 7.462 0 16.667zm24.23-6.771c.713 0 1.29.578 1.29 1.291V22.24c0 .713-.577 1.291-1.29 1.291H9.103c-.713 0-1.291-.578-1.291-1.291V11.188c0-.714.578-1.292 1.291-1.292H24.23zm-4.395 6.946l-.432.466c-.715.748-1.704 1.171-2.739 1.171s-2.024-.423-2.743-1.176l-.358-.385-4.093 5.571H23.8l-3.965-5.647zm4.644-4.984l-3.919 4.206 3.919 5.58v-9.786zm-15.625.007v9.704l3.986-5.427-3.986-4.277zm15.059-.928H9.414l5.265 5.651c.47.493 1.106.792 1.781.842l.204.008c.75 0 1.467-.307 1.981-.845l5.268-5.656z"/>
    </defs>
    <g fill="none" fill-rule="evenodd" transform="translate(13.333 13.333)">
        <mask id="n4pvj3331b" fill="#fff">
            <use xlink:href="#j3av9yomva"/>
        </mask>
        <use fill="#008BCF" fill-rule="nonzero" xlink:href="#j3av9yomva"/>
        <g mask="url(#n4pvj3331b)">
            <path fill="#9B9B9B" d="M0 0H60V60H0z" transform="translate(-13.333 -13.333)"/>
        </g>
    </g>
</svg>

<svg width="34" height="34" viewBox="0 0 34 34" fill="none" xmlns="http://www.w3.org/2000/svg">
<path d="M0 16.667C0 25.871 7.462 33.333 16.667 33.333C25.871 33.333 33.333 25.871 33.333 16.667C33.333 7.462 25.871 0 16.667 0C7.462 0 0 7.462 0 16.667ZM24.23 9.896C24.943 9.896 25.52 10.474 25.52 11.187V22.24C25.52 22.953 24.943 23.531 24.23 23.531H9.103C8.39 23.531 7.812 22.953 7.812 22.24V11.188C7.812 10.474 8.39 9.896 9.103 9.896H24.23ZM19.835 16.842L19.403 17.308C18.688 18.056 17.699 18.479 16.664 18.479C15.629 18.479 14.64 18.056 13.921 17.303L13.563 16.918L9.47 22.489H23.8L19.835 16.842ZM24.479 11.858L20.56 16.064L24.479 21.644V11.858ZM8.854 11.865V21.569L12.84 16.142L8.854 11.865ZM23.913 10.937H9.414L14.679 16.588C15.149 17.081 15.785 17.38 16.46 17.43L16.664 17.438C17.414 17.438 18.131 17.131 18.645 16.593L23.913 10.937V10.937Z" fill="#008BCF"/>
<mask id="mask0_3_25" style="mask-type:luminance" maskUnits="userSpaceOnUse" x="0" y="0" width="34" height="34">
<path d="M0 16.667C0 25.871 7.462 33.333 16.667 33.333C25.871 33.333 33.333 25.871 33.333 16.667C33.333 7.462 25.871 0 16.667 0C7.462 0 0 7.462 0 16.667ZM24.23 9.896C24.943 9.896 25.52 10.474 25.52 11.187V22.24C25.52 22.953 24.943 23.531 24.23 23.531H9.103C8.39 23.531 7.812 22.953 7.812 22.24V11.188C7.812 10.474 8.39 9.896 9.103 9.896H24.23ZM19.835 16.842L19.403 17.308C18.688 18.056 17.699 18.479 16.664 18.479C15.629 18.479 14.64 18.056 13.921 17.303L13.563 16.918L9.47 22.489H23.8L19.835 16.842ZM24.479 11.858L20.56 16.064L24.479 21.644V11.858ZM8.854 11.865V21.569L12.84 16.142L8.854 11.865ZM23.913 10.937H9.414L14.679 16.588C15.149 17.081 15.785 17.38 16.46 17.43L16.664 17.438C17.414 17.438 18.131 17.131 18.645 16.593L23.913 10.937V10.937Z" fill="white"/>
</mask>
<g mask="url(#mask0_3_25)">
<path fill-rule="evenodd" clip-rule="evenodd" d="M-13.333 -13.333H46.667V46.667H-13.333V-13.333Z" fill="#9B9B9B"/>
</g>
</svg>
